icons/anss-dark.svg

<svg width="256" height="256" viewBox="0 0 256 256" fill="none" xmlns="http://www.w3.org/2000/svg">
<path d="M196 0H60C26.8629 0 0 26.8629 0 60V196C0 229.137 26.8629 256 60 256H196C229.137 256 256 229.137 256 196V60C256 26.8629 229.137 0 196 0Z" fill="#282828"/>
<g clip-path="url(#clip0_164_570)">
<path d="M145.029 41.092L73.927 215.934H26.0132L97.2339 41.092H145.029Z" fill="#FFB71B"/>
<path d="M156.689 46.6931L228.974 215.934H177.672L132.214 105.478L156.689 46.6931Z" fill="black"/>
</g>
<defs>
<clipPath id="clip0_164_570">
<rect width="203" height="175" fill="white" transform="translate(26 41)"/>
</clipPath>
</defs>
</svg>

<svg xmlns="http://www.w3.org/2000/svg" width="256" height="256" fill="none"><path fill="#282828" d="M196 0H60C26.863 0 0 26.863 0 60v136c0 33.137 26.863 60 60 60h136c33.137 0 60-26.863 60-60V60c0-33.137-26.863-60-60-60"/><g clip-path="url(#clip0_164_570)"><path fill="#FFB71B" d="M145.029 41.092 73.927 215.934H26.013l71.22-174.842z"/><path fill="#000" d="m156.689 46.693 72.285 169.241h-51.302l-45.458-110.456z"/></g><defs><clipPath id="clip0_164_570"><path fill="#fff" d="M26 41h203v175H26z"/></clipPath></defs></svg>
